public/svg/broker-info-four-active.svg

<svg width="70" height="70" viewBox="0 0 70 70" fill="none" xmlns="http://www.w3.org/2000/svg">
<path d="M68.6397 44.5703H1.36026C-0.454102 44.6425 -0.452735 47.2332 1.36026 47.3047H8.11541C12.8486 59.0292 21.5321 66.4401 34.6462 69.9534C34.8781 70.0155 35.1222 70.0155 35.3541 69.9534C48.4689 66.44 57.1526 59.0289 61.8856 47.3047H68.6397C70.4541 47.2324 70.4527 44.642 68.6397 44.5703ZM52.8613 47.3047C52.4962 48.0022 52.1117 48.6739 51.7111 49.313C48.0463 55.161 42.5775 59.1563 34.9998 61.518C27.4223 59.1563 21.9534 55.161 18.2886 49.313C17.888 48.6739 17.5035 48.0024 17.1384 47.3048H52.8613V47.3047ZM35 67.2162C23.3589 64.0097 15.5166 57.4856 11.0809 47.3047H14.084C14.6605 48.5224 15.2945 49.6847 15.9712 50.7646C20.0661 57.2991 26.1615 61.7124 34.6055 64.257C34.8628 64.3345 35.1373 64.3345 35.3946 64.257C43.8387 61.7125 49.9341 57.2991 54.029 50.7648C54.7057 49.6847 55.3396 48.5224 55.9161 47.3047H58.9203C54.4845 57.4855 46.6418 64.0095 35 67.2162Z" fill="#ffffff"/>
<path d="M1.36031 25.4297H68.6397C70.4541 25.3574 70.4527 22.767 68.6397 22.6953H66.3412C66.4154 20.7225 66.4515 18.6543 66.4515 16.4063C66.4515 15.6512 65.8392 15.0391 65.0841 15.0391C57.544 15.0391 51.4096 8.90587 51.4096 1.36719C51.4096 0.61209 50.7973 0 50.0422 0H19.9579C19.2026 0 18.5904 0.61209 18.5904 1.36719C18.5904 8.90587 12.4561 15.0391 4.91586 15.0391C4.16061 15.0391 3.54839 15.6512 3.54839 16.4063C3.54839 18.6572 3.58449 20.7253 3.65847 22.6953H1.36031C-0.454187 22.7675 -0.452683 25.3582 1.36031 25.4297ZM6.2877 17.7166C14.2458 17.0554 20.6091 10.6913 21.2689 2.73438H48.731C49.3909 10.6913 55.7541 17.0554 63.7123 17.7166C63.7006 19.4696 63.6649 21.114 63.6042 22.6953H60.8728C60.8921 22.1902 60.9088 21.6761 60.9227 21.1579C60.9397 20.5311 60.5278 19.973 59.9236 19.8043C53.4982 18.0098 48.4035 12.9012 46.628 6.472C46.4643 5.87932 45.9249 5.46875 45.3098 5.46875H41.1531C39.3387 5.54108 39.3401 8.13149 41.1531 8.20313H44.2954C46.4474 14.7364 51.6323 19.9422 58.1569 22.1219C58.1502 22.3143 58.1432 22.5054 58.1358 22.6953H11.8641C11.8567 22.5054 11.8497 22.3143 11.843 22.1219C18.3675 19.9422 23.5525 14.7364 25.7047 8.20313H28.846C30.6604 8.13094 30.659 5.54026 28.846 5.46875H24.6901C24.075 5.46875 23.5357 5.87932 23.372 6.472C21.5965 12.9012 16.5019 18.01 10.0764 19.8043C9.4724 19.973 9.06052 20.5308 9.07734 21.1577C9.09115 21.6757 9.10783 22.1899 9.12712 22.6952H6.39532C6.33488 21.1158 6.29933 19.4715 6.2877 17.7166Z" fill="#ffffff"/>
<path d="M34.9994 8.20313C36.8136 8.13094 36.8122 5.54025 34.9994 5.46875H34.9984C33.184 5.54121 33.1865 8.13176 34.9994 8.20313Z" fill="#ffffff"/>
<path d="M29.896 32.085C30.3253 32.085 30.694 32.176 31.002 32.358C31.3147 32.54 31.555 32.82 31.723 33.198C31.8957 33.576 31.982 34.059 31.982 34.647V38H30.505V34.913C30.505 34.3577 30.4257 33.9353 30.267 33.646C30.113 33.3567 29.8213 33.212 29.392 33.212C29.1587 33.212 28.9393 33.275 28.734 33.401C28.5287 33.527 28.363 33.716 28.237 33.968C28.1157 34.2153 28.055 34.5303 28.055 34.913V38H26.669V34.913C26.669 34.3577 26.5733 33.9353 26.382 33.646C26.1953 33.3567 25.9153 33.212 25.542 33.212C25.304 33.212 25.0847 33.2727 24.884 33.394C24.6833 33.5153 24.5223 33.702 24.401 33.954C24.2797 34.206 24.219 34.5257 24.219 34.913V38H22.735V32.253H24.219V33.114C24.2703 32.9693 24.3847 32.8177 24.562 32.659C24.744 32.5003 24.9703 32.365 25.241 32.253C25.5117 32.141 25.808 32.085 26.13 32.085C26.48 32.085 26.7693 32.1503 26.998 32.281C27.2313 32.407 27.4157 32.5657 27.551 32.757C27.691 32.9483 27.7937 33.1397 27.859 33.331C27.9243 33.1397 28.0503 32.9483 28.237 32.757C28.4283 32.5657 28.6663 32.407 28.951 32.281C29.2357 32.1503 29.5507 32.085 29.896 32.085ZM36.2718 38.168C35.6698 38.168 35.1331 38.0373 34.6618 37.776C34.1951 37.51 33.8288 37.1507 33.5628 36.698C33.2968 36.2407 33.1638 35.7227 33.1638 35.144C33.1638 34.5653 33.2968 34.045 33.5628 33.583C33.8288 33.121 34.1951 32.757 34.6618 32.491C35.1331 32.2203 35.6698 32.085 36.2718 32.085C36.8738 32.085 37.4058 32.2203 37.8678 32.491C38.3298 32.757 38.6915 33.121 38.9528 33.583C39.2188 34.045 39.3518 34.5653 39.3518 35.144C39.3518 35.7227 39.2188 36.2407 38.9528 36.698C38.6915 37.1507 38.3298 37.51 37.8678 37.776C37.4058 38.0373 36.8738 38.168 36.2718 38.168ZM36.2718 36.908C36.6078 36.908 36.8995 36.831 37.1468 36.677C37.3941 36.523 37.5855 36.313 37.7208 36.047C37.8561 35.781 37.9238 35.4777 37.9238 35.137C37.9238 34.7963 37.8561 34.493 37.7208 34.227C37.5855 33.9563 37.3941 33.7417 37.1468 33.583C36.8995 33.4243 36.6078 33.345 36.2718 33.345C35.9358 33.345 35.6418 33.4243 35.3898 33.583C35.1425 33.7417 34.9488 33.9563 34.8088 34.227C34.6735 34.493 34.6058 34.7963 34.6058 35.137C34.6058 35.4777 34.6735 35.781 34.8088 36.047C34.9488 36.313 35.1425 36.523 35.3898 36.677C35.6418 36.831 35.9358 36.908 36.2718 36.908ZM44.0538 32.085C44.4412 32.085 44.8168 32.1643 45.1808 32.323C45.5448 32.4817 45.8435 32.736 46.0768 33.086C46.3148 33.4313 46.4338 33.8817 46.4338 34.437V38H44.9288V34.71C44.9288 34.192 44.8052 33.8117 44.5578 33.569C44.3152 33.3217 44.0002 33.198 43.6128 33.198C43.3562 33.198 43.1112 33.2703 42.8778 33.415C42.6445 33.5597 42.4532 33.7557 42.3038 34.003C42.1592 34.2503 42.0868 34.535 42.0868 34.857V38H40.5888V32.253H42.0868V33.219C42.1288 33.0603 42.2408 32.8947 42.4228 32.722C42.6095 32.5447 42.8452 32.3953 43.1298 32.274C43.4145 32.148 43.7225 32.085 44.0538 32.085ZM47.4413 32.253H48.5193V29.894H50.0033V32.253H51.4243V33.513H50.0033V35.97C50.0033 36.278 50.0546 36.509 50.1573 36.663C50.2646 36.817 50.4163 36.894 50.6123 36.894C50.7756 36.894 50.9039 36.8637 50.9973 36.803C51.0953 36.7423 51.1536 36.7003 51.1723 36.677L51.7253 37.762C51.6973 37.79 51.6156 37.8367 51.4803 37.902C51.3449 37.9673 51.1699 38.028 50.9553 38.084C50.7406 38.14 50.4956 38.168 50.2203 38.168C49.7349 38.168 49.3289 38.0233 49.0023 37.734C48.6803 37.4447 48.5193 36.992 48.5193 36.376V33.513H47.4413V32.253ZM56.1888 32.085C56.5714 32.085 56.9448 32.1643 57.3088 32.323C57.6728 32.4817 57.9714 32.736 58.2048 33.086C58.4428 33.4313 58.5618 33.8817 58.5618 34.437V38H57.0568V34.71C57.0568 34.192 56.9378 33.8117 56.6998 33.569C56.4664 33.3217 56.1561 33.198 55.7688 33.198C55.5121 33.198 55.2648 33.2703 55.0268 33.415C54.7888 33.5597 54.5928 33.7557 54.4388 34.003C54.2894 34.2503 54.2148 34.535 54.2148 34.857V38H52.7098V28.368H54.2148V33.219C54.2568 33.0603 54.3688 32.8947 54.5508 32.722C54.7374 32.5447 54.9731 32.3953 55.2578 32.274C55.5424 32.148 55.8528 32.085 56.1888 32.085ZM62.3813 32.085C62.7033 32.085 63.0019 32.1153 63.2773 32.176C63.5526 32.2367 63.7883 32.309 63.9843 32.393C64.1803 32.477 64.3156 32.547 64.3903 32.603L63.8443 33.527C63.7509 33.4477 63.5829 33.3567 63.3403 33.254C63.1023 33.1513 62.8339 33.1 62.5353 33.1C62.2366 33.1 61.9846 33.1537 61.7793 33.261C61.5739 33.3683 61.4713 33.5293 61.4713 33.744C61.4713 33.954 61.5786 34.122 61.7933 34.248C62.0126 34.374 62.3089 34.479 62.6823 34.563C62.9903 34.633 63.2843 34.731 63.5643 34.857C63.8443 34.9783 64.0729 35.1533 64.2503 35.382C64.4323 35.606 64.5233 35.907 64.5233 36.285C64.5233 36.6443 64.4463 36.9453 64.2923 37.188C64.1429 37.426 63.9423 37.6173 63.6903 37.762C63.4383 37.9067 63.1583 38.0093 62.8503 38.07C62.5469 38.1353 62.2413 38.168 61.9333 38.168C61.5553 38.168 61.2169 38.1307 60.9183 38.056C60.6243 37.9813 60.3793 37.895 60.1833 37.797C59.9873 37.6943 59.8473 37.608 59.7633 37.538L60.3093 36.502C60.4306 36.6187 60.6289 36.7423 60.9043 36.873C61.1796 36.999 61.4876 37.062 61.8283 37.062C62.1923 37.062 62.4839 36.992 62.7033 36.852C62.9226 36.712 63.0323 36.5253 63.0323 36.292C63.0323 36.1193 62.9786 35.9793 62.8713 35.872C62.7686 35.7647 62.6263 35.6783 62.4443 35.613C62.2623 35.5477 62.0593 35.4893 61.8353 35.438C61.6253 35.3867 61.4129 35.3213 61.1983 35.242C60.9883 35.158 60.7946 35.0507 60.6173 34.92C60.4399 34.7847 60.2976 34.6167 60.1903 34.416C60.0829 34.2153 60.0293 33.9797 60.0293 33.709C60.0293 33.3637 60.1389 33.0697 60.3583 32.827C60.5776 32.5843 60.8669 32.4 61.2263 32.274C61.5856 32.148 61.9706 32.085 62.3813 32.085Z" fill="#ffffff"/>
<path d="M6.74139 30.608L5.18039 31.476V30.055L7.44139 28.76H8.21839V38H6.74139V30.608ZM13.0344 38.168C12.4464 38.168 11.9144 38.049 11.4384 37.811C10.9624 37.573 10.5821 37.251 10.2974 36.845C10.0174 36.4343 9.87739 35.9723 9.87739 35.459C9.87739 35.0063 9.95439 34.6237 10.1084 34.311C10.2624 33.9937 10.4677 33.73 10.7244 33.52C10.9857 33.3053 11.2727 33.1373 11.5854 33.016C11.3567 32.904 11.1421 32.7617 10.9414 32.589C10.7454 32.4117 10.5844 32.1923 10.4584 31.931C10.3371 31.665 10.2764 31.3453 10.2764 30.972C10.2764 30.496 10.3977 30.0807 10.6404 29.726C10.8877 29.3667 11.2191 29.089 11.6344 28.893C12.0544 28.6923 12.5187 28.592 13.0274 28.592C13.5407 28.592 14.0027 28.6923 14.4134 28.893C14.8241 29.089 15.1484 29.3667 15.3864 29.726C15.6291 30.0807 15.7504 30.496 15.7504 30.972C15.7504 31.532 15.6244 31.9683 15.3724 32.281C15.1204 32.5937 14.8171 32.8387 14.4624 33.016C14.7751 33.1373 15.0597 33.3053 15.3164 33.52C15.5777 33.73 15.7854 33.9937 15.9394 34.311C16.0981 34.6237 16.1774 35.0063 16.1774 35.459C16.1774 35.9723 16.0374 36.4343 15.7574 36.845C15.4774 37.251 15.0994 37.573 14.6234 37.811C14.1521 38.049 13.6224 38.168 13.0344 38.168ZM13.0274 36.859C13.3261 36.859 13.5944 36.7913 13.8324 36.656C14.0751 36.516 14.2687 36.327 14.4134 36.089C14.5581 35.8463 14.6304 35.578 14.6304 35.284C14.6304 34.9853 14.5581 34.717 14.4134 34.479C14.2687 34.241 14.0751 34.052 13.8324 33.912C13.5944 33.772 13.3261 33.702 13.0274 33.702C12.7287 33.702 12.4557 33.772 12.2084 33.912C11.9657 34.052 11.7721 34.241 11.6274 34.479C11.4874 34.717 11.4174 34.9853 11.4174 35.284C11.4174 35.578 11.4874 35.844 11.6274 36.082C11.7721 36.32 11.9657 36.509 12.2084 36.649C12.4557 36.789 12.7287 36.859 13.0274 36.859ZM13.0344 32.533C13.2864 32.533 13.5151 32.47 13.7204 32.344C13.9304 32.218 14.0961 32.05 14.2174 31.84C14.3434 31.63 14.4064 31.399 14.4064 31.147C14.4064 30.895 14.3434 30.6663 14.2174 30.461C14.0914 30.251 13.9234 30.0853 13.7134 29.964C13.5081 29.838 13.2794 29.775 13.0274 29.775C12.7801 29.775 12.5491 29.838 12.3344 29.964C12.1244 30.0853 11.9564 30.251 11.8304 30.461C11.7091 30.6663 11.6484 30.895 11.6484 31.147C11.6484 31.399 11.7091 31.63 11.8304 31.84C11.9564 32.05 12.1244 32.218 12.3344 32.344C12.5491 32.47 12.7824 32.533 13.0344 32.533Z" fill="#ffffff"/>
</svg>

<svg xmlns="http://www.w3.org/2000/svg" width="70" height="70" fill="none"><path fill="#fff" d="M68.64 44.57H1.36c-1.814.072-1.813 2.663 0 2.735h6.755C12.85 59.029 21.532 66.44 34.646 69.953c.232.063.476.063.708 0C48.47 66.44 57.153 59.03 61.886 47.305h6.754c1.814-.073 1.813-2.663 0-2.735M52.86 47.305a30 30 0 0 1-1.15 2.008C48.046 55.161 42.578 59.156 35 61.518c-7.578-2.362-13.047-6.357-16.711-12.205q-.603-.96-1.15-2.008zM35 67.216c-11.641-3.206-19.483-9.73-23.92-19.911h3.004a34 34 0 0 0 1.887 3.46c4.095 6.534 10.19 10.947 18.635 13.492.257.078.531.078.789 0 8.444-2.545 14.54-6.958 18.634-13.492a34 34 0 0 0 1.887-3.46h3.004C54.484 57.485 46.642 64.01 35 67.216M1.36 25.43h67.28c1.814-.073 1.813-2.663 0-2.735H66.34c.074-1.973.11-4.04.11-6.289 0-.755-.612-1.367-1.367-1.367-7.54 0-13.674-6.133-13.674-13.672C51.41.612 50.797 0 50.042 0H19.958c-.755 0-1.368.612-1.368 1.367 0 7.539-6.134 13.672-13.674 13.672-.755 0-1.368.612-1.368 1.367 0 2.251.036 4.32.11 6.29H1.36c-1.814.071-1.813 2.662 0 2.734m4.928-7.713c7.958-.662 14.321-7.026 14.98-14.983h27.463c.66 7.957 7.023 14.321 14.981 14.983a157 157 0 0 1-.108 4.978h-2.731q.03-.759.05-1.537a1.37 1.37 0 0 0-1-1.354c-6.425-1.794-11.52-6.903-13.295-13.332a1.37 1.37 0 0 0-1.318-1.003h-4.157c-1.814.072-1.813 2.662 0 2.734h3.142c2.152 6.533 7.337 11.74 13.862 13.919l-.021.573H11.864l-.021-.573c6.525-2.18 11.71-7.386 13.862-13.919h3.141c1.814-.072 1.813-2.663 0-2.734H24.69c-.615 0-1.154.41-1.318 1.003-1.776 6.43-6.87 11.538-13.296 13.332a1.37 1.37 0 0 0-.999 1.354q.02.778.05 1.537H6.395c-.06-1.58-.096-3.224-.107-4.978"/><path fill="#fff" d="M35 8.203c1.814-.072 1.812-2.663 0-2.734h-.002c-1.814.072-1.811 2.663.001 2.734M29.896 32.085q.645 0 1.106.273.47.273.721.84.26.567.259 1.449V38h-1.477v-3.087q0-.833-.238-1.267-.231-.434-.875-.434-.35 0-.658.189a1.35 1.35 0 0 0-.497.567q-.182.37-.182.945V38h-1.386v-3.087q0-.833-.287-1.267-.28-.434-.84-.434-.357 0-.658.182-.3.182-.483.56-.182.378-.182.959V38h-1.484v-5.747h1.484v.861q.077-.217.343-.455.273-.238.679-.406t.889-.168q.526 0 .868.196.35.19.553.476.21.287.308.574.098-.287.378-.574.287-.287.714-.476.428-.196.945-.196m6.376 6.083q-.903 0-1.61-.392a2.94 2.94 0 0 1-1.1-1.078 3.03 3.03 0 0 1-.398-1.554q0-.868.399-1.561a2.9 2.9 0 0 1 1.099-1.092q.707-.406 1.61-.406t1.596.406q.693.399 1.085 1.092.399.693.399 1.561 0 .869-.4 1.554a2.9 2.9 0 0 1-1.084 1.078q-.693.392-1.596.392m0-1.26q.504 0 .875-.231a1.56 1.56 0 0 0 .574-.63 2 2 0 0 0 .203-.91q0-.51-.203-.91a1.6 1.6 0 0 0-.574-.644 1.6 1.6 0 0 0-.875-.238q-.504 0-.882.238a1.65 1.65 0 0 0-.581.644 2 2 0 0 0-.203.91q0 .51.203.91.21.399.58.63.38.231.883.231m7.782-4.823q.58 0 1.127.238.546.238.896.763.357.518.357 1.351V38h-1.505v-3.29q0-.777-.371-1.141-.364-.37-.945-.371-.385 0-.735.217t-.574.588a1.66 1.66 0 0 0-.217.854V38h-1.498v-5.747h1.498v.966q.063-.238.336-.497.28-.266.707-.448.426-.189.924-.189m3.387.168h1.078v-2.359h1.484v2.359h1.421v1.26h-1.42v2.457q0 .462.153.693a.52.52 0 0 0 .455.231q.246 0 .385-.091a1 1 0 0 0 .175-.126l.553 1.085q-.042.042-.245.14a2.94 2.94 0 0 1-1.26.266q-.727 0-1.218-.434-.483-.434-.483-1.358v-2.863h-1.078zm8.748-.168q.574 0 1.12.238.545.238.896.763.357.518.357 1.351V38h-1.505v-3.29q0-.777-.357-1.141-.35-.37-.931-.371-.385 0-.742.217t-.588.588q-.224.37-.224.854V38H52.71v-9.632h1.505v4.851q.063-.238.336-.497.28-.266.707-.448.427-.189.93-.189m6.192 0a4.2 4.2 0 0 1 1.603.308q.295.126.406.21l-.546.924q-.14-.12-.504-.273a2 2 0 0 0-.805-.154q-.447 0-.756.161-.308.16-.308.483 0 .315.322.504.33.189.89.315.46.105.881.294.42.181.686.525.273.336.273.903 0 .54-.23.903-.224.358-.603.574a2.7 2.7 0 0 1-.84.308 4.4 4.4 0 0 1-.917.098q-.567 0-1.015-.112a3.7 3.7 0 0 1-.735-.259 2.6 2.6 0 0 1-.42-.259l.546-1.036q.183.175.595.371.414.189.924.189.546 0 .875-.21.33-.21.33-.56a.57.57 0 0 0-.162-.42 1.1 1.1 0 0 0-.427-.259 5 5 0 0 0-.609-.175 6 6 0 0 1-.637-.196 2.6 2.6 0 0 1-.58-.322 1.5 1.5 0 0 1-.428-.504 1.5 1.5 0 0 1-.16-.707q0-.518.328-.882.33-.364.868-.553.54-.189 1.155-.189M6.741 30.608l-1.56.868v-1.421l2.26-1.295h.777V38H6.741zm6.293 7.56q-.882 0-1.596-.357a3 3 0 0 1-1.14-.966q-.42-.616-.42-1.386 0-.679.23-1.148.232-.476.616-.791.393-.323.861-.504a3 3 0 0 1-.644-.427 2.1 2.1 0 0 1-.483-.658q-.181-.4-.182-.959 0-.714.364-1.246.373-.54.994-.833.63-.3 1.393-.301.771 0 1.386.301.616.294.973.833.364.532.364 1.246 0 .84-.378 1.309a2.7 2.7 0 0 1-.91.735q.47.182.854.504.393.315.623.791.239.469.238 1.148 0 .77-.42 1.386-.42.609-1.134.966a3.5 3.5 0 0 1-1.589.357m-.007-1.309a1.6 1.6 0 0 0 .805-.203q.365-.21.581-.567.217-.364.217-.805 0-.448-.217-.805a1.61 1.61 0 0 0-1.386-.777q-.447 0-.819.21-.363.21-.58.567-.21.357-.21.805 0 .441.21.798.216.357.58.567.371.21.82.21m.007-4.326q.378 0 .686-.189a1.4 1.4 0 0 0 .497-.504q.19-.315.19-.693t-.19-.686a1.4 1.4 0 0 0-.504-.497 1.3 1.3 0 0 0-.686-.189q-.37 0-.693.189a1.4 1.4 0 0 0-.504.497 1.3 1.3 0 0 0-.182.686 1.36 1.36 0 0 0 .686 1.197q.322.189.7.189"/></svg>
